X:291
T:Ormond's March.
C:John Malchair's Third Collection of Tunes
F:https://www.vwml.org/record/Malchair/3619/p29
F:www.vwml.org/topics/historic-dance-and-tune-books/Malchair
Z:Eric Conrad Jan 2020
N:NB1 No repeats in MS.  Assuming parts are repeated.
M:C|
L:1/8
R:march
K:C
P:A
|: e4 d3c | c6 ef | g2g2 g2fe | d6 de | f2f2 f2ed |
e3f edcB | A4 dedc | B2Bc dcBA | G2cB A3G | G8 :|
P:B
|: d6 Bc | d2d2 d2e2 | dcBc d2G2 | g6 ef |
g2g2 g2a2 | gfef g2c2 | a2fg agaf | g2ef gfge |
f2de fefd | e2fe dcBA | BGc2 c3B | c8 :|


